X: 3
T: The Black Rogue
R: jig
M: 6/8
L: 1/8
K: Gmaj
|: dBB BAB | dBB Bge | dBB B2A | GEE Ege | dBB BAB | dBd g2e | dBB B2A | GEE E3 :||: g2g aga | bge dBd | g2g aga | bge ega | bag age | ged g2e | dBG AGE | GED D3 :|


Tune 1076	Setting 29384

